X: 1082
M: 6/8
L: 1/8
K: D
dfd B2d | AFA A2d | AFA Ade | f3 gfe |\
dfd B2d | AFA A2d | B2g fge | d3 d2 :|
|: A |\
dfg a2f | b2g a2f | dfg a2f | g2e bge |\
dfg a2f | b2g a2f | fdA Ade | f3 f2e/d/ |

